svg/fluentui-system-icons/ic_fluent_window_text_20_regular.svg

<svg width="20" height="20" viewBox="0 0 20 20" fill="none" xmlns="http://www.w3.org/2000/svg">
<path d="M5 9.5C5 9.22386 5.22386 9 5.5 9H14.5C14.7761 9 15 9.22386 15 9.5C15 9.77614 14.7761 10 14.5 10H5.5C5.22386 10 5 9.77614 5 9.5ZM5 11.5C5 11.2239 5.22386 11 5.5 11H10.5C10.7761 11 11 11.2239 11 11.5C11 11.7761 10.7761 12 10.5 12H5.5C5.22386 12 5 11.7761 5 11.5ZM12 11.5C12 11.2239 12.2239 11 12.5 11H14.5C14.7761 11 15 11.2239 15 11.5C15 11.7761 14.7761 12 14.5 12H12.5C12.2239 12 12 11.7761 12 11.5ZM9 13.5C9 13.2239 9.22386 13 9.5 13H14.5C14.7761 13 15 13.2239 15 13.5C15 13.7761 14.7761 14 14.5 14H9.5C9.22386 14 9 13.7761 9 13.5ZM5 13.5C5 13.2239 5.22386 13 5.5 13H7.5C7.77614 13 8 13.2239 8 13.5C8 13.7761 7.77614 14 7.5 14H5.5C5.22386 14 5 13.7761 5 13.5ZM3 6C3 4.34315 4.34315 3 6 3H14C15.6569 3 17 4.34315 17 6V14C17 15.6569 15.6569 17 14 17H6C4.34315 17 3 15.6569 3 14V6ZM6 4C4.89543 4 4 4.89543 4 6L16 6C16 4.89543 15.1046 4 14 4H6ZM16 7H4V14C4 15.1046 4.89543 16 6 16H14C15.1046 16 16 15.1046 16 14V7Z" fill="#212121"/>
</svg>

<svg xmlns="http://www.w3.org/2000/svg" width="20" height="20"><path d="M5 9.5a.5.5 0 0 1 .5-.5h9a.5.5 0 0 1 0 1h-9a.5.5 0 0 1-.5-.5Zm0 2a.5.5 0 0 1 .5-.5h5a.5.5 0 0 1 0 1h-5a.5.5 0 0 1-.5-.5Zm7 0a.5.5 0 0 1 .5-.5h2a.5.5 0 0 1 0 1h-2a.5.5 0 0 1-.5-.5Zm-3 2a.5.5 0 0 1 .5-.5h5a.5.5 0 0 1 0 1h-5a.5.5 0 0 1-.5-.5Zm-4 0a.5.5 0 0 1 .5-.5h2a.5.5 0 0 1 0 1h-2a.5.5 0 0 1-.5-.5ZM3 6a3 3 0 0 1 3-3h8a3 3 0 0 1 3 3v8a3 3 0 0 1-3 3H6a3 3 0 0 1-3-3V6Zm3-2a2 2 0 0 0-2 2h12a2 2 0 0 0-2-2H6Zm10 3H4v7a2 2 0 0 0 2 2h8a2 2 0 0 0 2-2V7Z"/></svg>
